assets/landing-page/Asset/supportcentre.svg

<svg width="24" height="24" viewBox="0 0 24 24" fill="none" xmlns="http://www.w3.org/2000/svg">
<path fill-rule="evenodd" clip-rule="evenodd" d="M11.8773 2C6.4541 2.00515 1.93923 6.39905 2.0071 11.8191C2.07688 17.3904 6.61182 22.008 12.1864 21.9999C17.621 21.9919 21.9903 17.451 22.0063 12.0192C22.0226 6.49223 17.4071 1.99476 11.8773 2ZM11.5789 7.83329C10.8933 7.83329 10.3376 8.38879 10.3376 9.07403C10.3376 9.53427 9.96427 9.90737 9.5038 9.90737C9.04333 9.90737 8.67004 9.53427 8.67004 9.07403C8.67004 7.46832 9.97239 6.16663 11.5789 6.16663H12.0051C13.8469 6.16663 15.3401 7.65901 15.3401 9.49996V9.85999C15.3401 11.4811 14.0421 12.7991 12.4283 12.8326V13.6851C12.4283 14.1454 12.055 14.5185 11.5945 14.5185C11.134 14.5185 10.7607 14.1454 10.7607 13.6851V12.7703C10.7607 11.8846 11.4791 11.1666 12.3653 11.1666C13.0873 11.1666 13.6726 10.5816 13.6726 9.85999V9.49996C13.6726 8.57949 12.926 7.83329 12.0051 7.83329H11.5789ZM12.4219 16.1666C12.4219 16.6269 12.0487 17 11.5882 17C11.1277 17 10.7544 16.6269 10.7544 16.1666C10.7544 15.7064 11.1277 15.3333 11.5882 15.3333C12.0487 15.3333 12.4219 15.7064 12.4219 16.1666Z" fill="black"/>
</svg>

<svg xmlns="http://www.w3.org/2000/svg" width="24" height="24" fill="none" viewBox="0 0 24 24"><path fill="#000" fill-rule="evenodd" d="M11.877 2c-5.423.005-9.938 4.399-9.87 9.82.07 5.57 4.605 10.188 10.18 10.18 5.434-.008 9.803-4.549 9.82-9.98.016-5.528-4.6-10.025-10.13-10.02m-.298 5.833a1.24 1.24 0 0 0-1.241 1.241.834.834 0 0 1-1.668 0 2.91 2.91 0 0 1 2.909-2.907h.426A3.334 3.334 0 0 1 15.34 9.5v.36a2.974 2.974 0 0 1-2.912 2.973v.852a.834.834 0 0 1-1.667 0v-.915c0-.885.718-1.603 1.604-1.603.722 0 1.308-.585 1.308-1.307V9.5c0-.92-.747-1.667-1.668-1.667zm.843 8.334a.833.833 0 1 1-1.667 0 .833.833 0 0 1 1.667 0" clip-rule="evenodd"/></svg>
